icons/svg/road_shields/h_white_usshield_4_road_shield.svg

<?xml version="1.0" encoding="UTF-8" standalone="no"?>
<!-- Generator: Adobe Illustrator 16.0.4, SVG Export Plug-In . SVG Version: 6.00 Build 0)  -->

<svg
   xmlns:dc="http://purl.org/dc/elements/1.1/"
   xmlns:cc="http://creativecommons.org/ns#"
   xmlns:rdf="http://www.w3.org/1999/02/22-rdf-syntax-ns#"
   xmlns:svg="http://www.w3.org/2000/svg"
   xmlns="http://www.w3.org/2000/svg"
   xmlns:sodipodi="http://sodipodi.sourceforge.net/DTD/sodipodi-0.dtd"
   xmlns:inkscape="http://www.inkscape.org/namespaces/inkscape"
   version="1.1"
   id="Слой_1"
   x="0px"
   y="0px"
   width="39"
   height="25"
   viewBox="0 0 39 25"
   enable-background="new 0 0 17.143 17.17"
   xml:space="preserve"
   inkscape:version="0.91 r13725"
   sodipodi:docname="h_white_usshield_4_road_shield.svg"><metadata
     id="metadata13"><rdf:RDF><cc:Work
         rdf:about=""><dc:format>image/svg+xml</dc:format><dc:type
           rdf:resource="http://purl.org/dc/dcmitype/StillImage" /><dc:title></dc:title></cc:Work></rdf:RDF></metadata><defs
     id="defs11" /><sodipodi:namedview
     pagecolor="#ffffff"
     bordercolor="#666666"
     borderopacity="1"
     objecttolerance="10"
     gridtolerance="10"
     guidetolerance="10"
     inkscape:pageopacity="0"
     inkscape:pageshadow="2"
     inkscape:window-width="1920"
     inkscape:window-height="1006"
     id="namedview9"
     showgrid="false"
     inkscape:zoom="19.43823"
     inkscape:cx="19.391264"
     inkscape:cy="14.511031"
     inkscape:window-x="1920"
     inkscape:window-y="0"
     inkscape:window-maximized="1"
     inkscape:current-layer="Слой_1"
     showguides="false" /><path
     id="path11"
     d="m 19.500002,3.9693681 c -1.770508,0.7228769 -3.857525,1.1400797 -6.092155,1.1400797 -2.234634,0 -6.0316892,-0.4172656 -8.0928992,-1.1401426 L 1.710906,7.6699527 c 1.0314305,0.967979 1.6369814,2.1480631 1.6369814,3.4215753 0,0.919049 -0.3153882,1.789453 -0.8786509,2.566585 -0.4861349,0.67156 -0.7583305,1.42363 -0.7583305,2.217624 0,2.843615 3.4911861,5.148727 7.7979592,5.148727 l 4.8793428,0 c 2.063694,0 3.905476,0.627311 5.111794,1.608914 1.206296,-0.981603 3.048077,-1.608914 5.111795,-1.608914 l 4.879341,0 c 4.306774,0 7.797957,-2.305112 7.797957,-5.148727 0,-0.793994 -0.272194,-1.546064 -0.758376,-2.217624 -0.56324,-0.777132 -0.878603,-1.647536 -0.878603,-2.566585 0,-1.2735122 0.605551,-2.4535963 1.636979,-3.4215753 L 33.685054,3.9693052 c -2.061209,0.722877 -5.858265,1.1401426 -8.092898,1.1401426 -2.234629,0 -4.32167,-0.4172028 -6.092154,-1.1400797 z"
     inkscape:connector-curvature="0"
     style="color:#000000;clip-rule:evenodd;display:inline;overflow:visible;visibility:visible;opacity:1;isolation:auto;mix-blend-mode:normal;color-interpolation:sRGB;color-interpolation-filters:linearRGB;solid-color:#000000;solid-opacity:1;fill:#ffffff;fill-opacity:1;fill-rule:evenodd;stroke:#696969;stroke-width:0.99999994;stroke-linecap:butt;stroke-linejoin:miter;stroke-miterlimit:4;stroke-dasharray:none;stroke-dashoffset:0;stroke-opacity:1;color-rendering:auto;image-rendering:auto;shape-rendering:auto;text-rendering:auto;enable-background:accumulate"
     sodipodi:nodetypes="csccscssscssscsccsc" /></svg>

<svg width="39" height="25" viewBox="0 0 39 25" fill="none" xmlns="http://www.w3.org/2000/svg">
<path fill-rule="evenodd" clip-rule="evenodd" d="M19.5 3.96936C17.7295 4.69224 15.6425 5.10944 13.4078 5.10944C11.1732 5.10944 7.37616 4.69218 5.31495 3.9693L1.71091 7.66995C2.74234 8.63793 3.34789 9.81801 3.34789 11.0915C3.34789 12.0106 3.0325 12.881 2.46924 13.6581C1.9831 14.3297 1.71091 15.0817 1.71091 15.8757C1.71091 18.7193 5.20209 21.0245 9.50887 21.0245H14.3882C16.4519 21.0245 18.2937 21.6518 19.5 22.6334C20.7063 21.6518 22.5481 21.0245 24.6118 21.0245H29.4911C33.7979 21.0245 37.2891 18.7193 37.2891 15.8757C37.2891 15.0817 37.0169 14.3297 36.5307 13.6581C35.9675 12.881 35.6521 12.0106 35.6521 11.0915C35.6521 9.81801 36.2577 8.63793 37.2891 7.66995L33.6851 3.9693C31.6238 4.69218 27.8268 5.10944 25.5922 5.10944C23.3575 5.10944 21.2705 4.69224 19.5 3.96936V3.96936Z" fill="white" stroke="#696969"/>
</svg>
